Newaita-dark/apps/64/preferences-system-notifications.svg

<?xml version="1.0" encoding="UTF-8"?>
<svg xmlns="http://www.w3.org/2000/svg" xmlns:xlink="http://www.w3.org/1999/xlink" width="64pt" height="64pt" viewBox="0 0 64 64" version="1.1">
<defs>
<radialGradient id="radial0" gradientUnits="userSpaceOnUse" cx="450.908936" cy="189.579361" fx="450.908936" fy="189.579361" r="21.166656" gradientTransform="matrix(0.000000130295,-0.156265,-0.140638,-0.0000000112817,45.184645,127.190633)">
<stop offset="0" style="stop-color:rgb(0%,0%,0%);stop-opacity:0.313725;"/>
<stop offset="0.222222" style="stop-color:rgb(0%,0%,0%);stop-opacity:0.27451;"/>
<stop offset="1" style="stop-color:rgb(0%,0%,0%);stop-opacity:0;"/>
</radialGradient>
<radialGradient id="radial1" gradientUnits="userSpaceOnUse" cx="450.908936" cy="189.579361" fx="450.908936" fy="189.579361" r="21.166656" gradientTransform="matrix(-0.00000029105,0.156265,0.171891,0.000000161833,-12.74122,-15.054952)">
<stop offset="0" style="stop-color:rgb(0%,0%,0%);stop-opacity:0.313725;"/>
<stop offset="0.222222" style="stop-color:rgb(0%,0%,0%);stop-opacity:0.27451;"/>
<stop offset="1" style="stop-color:rgb(0%,0%,0%);stop-opacity:0;"/>
</radialGradient>
<radialGradient id="radial2" gradientUnits="userSpaceOnUse" cx="450.908936" cy="189.579361" fx="450.908936" fy="189.579361" r="21.166656" gradientTransform="matrix(-0.000000142126,-0.156265,0.156264,-0.0000000112817,-9.778824,127.190633)">
<stop offset="0" style="stop-color:rgb(0%,0%,0%);stop-opacity:0.313725;"/>
<stop offset="0.222222" style="stop-color:rgb(0%,0%,0%);stop-opacity:0.27451;"/>
<stop offset="1" style="stop-color:rgb(0%,0%,0%);stop-opacity:0;"/>
</radialGradient>
<radialGradient id="radial3" gradientUnits="userSpaceOnUse" cx="450.908936" cy="189.579361" fx="450.908936" fy="189.579361" r="21.166656" gradientTransform="matrix(0.000000233616,0.156265,-0.156265,0.000000102772,48.147094,-15.054941)">
<stop offset="0" style="stop-color:rgb(0%,0%,0%);stop-opacity:0.313725;"/>
<stop offset="0.222222" style="stop-color:rgb(0%,0%,0%);stop-opacity:0.27451;"/>
<stop offset="1" style="stop-color:rgb(0%,0%,0%);stop-opacity:0;"/>
</radialGradient>
<linearGradient id="linear0" gradientUnits="userSpaceOnUse" x1="148.166672" y1="117.083344" x2="148.166672" y2="-168.666656" gradientTransform="matrix(0.125012,0,0,0.125012,0,41.431038)">
<stop offset="0" style="stop-color:rgb(69.019608%,74.509804%,77.254902%);stop-opacity:1;"/>
<stop offset="1" style="stop-color:rgb(81.176471%,84.705882%,86.27451%);stop-opacity:1;"/>
</linearGradient>
<linearGradient id="linear1" gradientUnits="userSpaceOnUse" x1="381" y1="43" x2="381" y2="-168.666656" gradientTransform="matrix(0.125012,0,0,0.125012,0,26.877566)">
<stop offset="0" style="stop-color:rgb(47.45098%,52.54902%,79.607843%);stop-opacity:1;"/>
<stop offset="1" style="stop-color:rgb(62.352941%,65.882353%,85.490196%);stop-opacity:1;"/>
</linearGradient>
<linearGradient id="linear2" gradientUnits="userSpaceOnUse" x1="1440" y1="855.118103" x2="1440" y2="255.118118" >
<stop offset="0" style="stop-color:rgb(69.019608%,74.509804%,77.254902%);stop-opacity:1;"/>
<stop offset="1" style="stop-color:rgb(81.176471%,84.705882%,86.27451%);stop-opacity:1;"/>
</linearGradient>
</defs>
<g id="surface1">
<path style=" stroke:none;fill-rule:nonzero;fill:url(#radial0);" d="M 19.183594 56.066406 L 24.476562 56.066406 L 24.476562 53.421875 L 19.183594 53.421875 Z M 19.183594 56.066406 "/>
<path style=" stroke:none;fill-rule:nonzero;fill:url(#radial1);" d="M 19.183594 56.066406 L 13.890625 56.066406 L 13.890625 58.714844 L 19.183594 58.714844 Z M 19.183594 56.066406 "/>
<path style=" stroke:none;fill-rule:nonzero;fill:url(#radial2);" d="M 19.183594 56.066406 L 13.890625 56.066406 L 13.890625 53.421875 L 19.183594 53.421875 Z M 19.183594 56.066406 "/>
<path style=" stroke:none;fill-rule:nonzero;fill:url(#radial3);" d="M 19.183594 56.066406 L 24.476562 56.066406 L 24.476562 58.714844 L 19.183594 58.714844 Z M 19.183594 56.066406 "/>
<path style=" stroke:none;fill-rule:nonzero;fill:url(#linear0);" d="M 10.554688 20.34375 C 7.621094 20.34375 5.261719 22.707031 5.261719 25.636719 L 5.261719 44.160156 C 5.261719 47.09375 7.621094 49.453125 10.554688 49.453125 L 18.523438 49.453125 L 18.492188 54.910156 C 18.492188 56.398438 19.816406 56.398438 20.28125 54.910156 L 22.425781 49.453125 L 39.660156 49.453125 C 42.59375 49.453125 44.953125 47.09375 44.953125 44.160156 L 44.953125 25.636719 C 44.953125 22.707031 42.59375 20.34375 39.660156 20.34375 Z M 10.554688 20.34375 "/>
<path style=" stroke:none;fill-rule:nonzero;fill:rgb(100%,100%,100%);fill-opacity:0.392157;" d="M 10.554688 20.34375 C 7.621094 20.34375 5.261719 22.707031 5.261719 25.636719 L 5.261719 26.300781 C 5.261719 23.367188 7.621094 21.007812 10.554688 21.007812 L 39.660156 21.007812 C 42.59375 21.007812 44.953125 23.367188 44.953125 26.300781 L 44.953125 25.636719 C 44.953125 22.707031 42.59375 20.34375 39.660156 20.34375 Z M 18.519531 50.113281 L 18.492188 54.910156 C 18.492188 54.949219 18.492188 54.992188 18.496094 55.027344 L 18.523438 50.113281 Z M 18.519531 50.113281 "/>
<path style=" stroke:none;fill-rule:nonzero;fill:rgb(0%,0%,0%);fill-opacity:0.235294;" d="M 5.261719 43.5 L 5.261719 44.160156 C 5.261719 47.09375 7.621094 49.453125 10.554688 49.453125 L 18.519531 49.453125 L 18.523438 48.792969 L 10.554688 48.792969 C 7.621094 48.792969 5.261719 46.429688 5.261719 43.5 Z M 44.953125 43.5 C 44.953125 46.429688 42.59375 48.792969 39.660156 48.792969 L 22.425781 48.792969 L 20.28125 54.25 C 19.828125 55.695312 18.5625 55.734375 18.496094 54.367188 L 18.492188 54.910156 C 18.492188 56.398438 19.816406 56.398438 20.28125 54.910156 L 22.425781 49.453125 L 39.660156 49.453125 C 42.59375 49.453125 44.953125 47.09375 44.953125 44.160156 Z M 44.953125 43.5 "/>
<path style="fill:none;stroke-width:3;stroke-linecap:round;stroke-linejoin:miter;stroke:rgb(12.941177%,12.941177%,12.941177%);stroke-opacity:1;stroke-miterlimit:4;" d="M 84.429437 -168.682197 C 60.962928 -168.682197 42.089731 -149.777752 42.089731 -126.34249 L 42.089731 21.83086 C 42.089731 45.297369 60.962928 64.170567 84.429437 64.170567 L 148.17335 64.170567 L 147.923374 107.822648 C 147.923374 119.727761 158.516112 119.727761 162.234507 107.822648 L 179.389119 64.170567 L 317.250954 64.170567 C 340.717463 64.170567 359.590661 45.297369 359.590661 21.83086 L 359.590661 -126.34249 C 359.590661 -149.777752 340.717463 -168.682197 317.250954 -168.682197 Z M 84.429437 -168.682197 " transform="matrix(0.125012,0,0,0.125012,0,41.431038)"/>
<path style=" stroke:none;fill-rule:nonzero;fill:url(#linear1);" d="M 47.628906 5.792969 C 54.9375 5.792969 60.859375 11.714844 60.859375 19.023438 C 60.859375 26.328125 54.9375 32.253906 47.628906 32.253906 C 40.324219 32.253906 34.398438 26.328125 34.398438 19.023438 C 34.398438 11.714844 40.324219 5.792969 47.628906 5.792969 Z M 47.628906 5.792969 "/>
<path style="fill-rule:nonzero;fill:url(#linear2);stroke-width:11.338583;stroke-linecap:square;stroke-linejoin:round;stroke:rgb(12.941177%,12.941177%,12.941177%);stroke-opacity:1;stroke-miterlimit:4;" d="M 1399.945126 255.093763 C 1377.860619 255.093763 1360.027676 272.926707 1360.027676 295.129312 L 1360.027676 575.141957 C 1360.027676 597.226464 1377.860619 615.059407 1399.945126 615.059407 L 1480.016224 615.059407 C 1502.218829 615.059407 1520.051773 597.226464 1520.051773 575.141957 L 1520.051773 295.129312 C 1520.051773 272.926707 1502.218829 255.093763 1480.016224 255.093763 Z M 1439.980675 695.130505 C 1395.693563 695.130505 1360.027676 730.796393 1360.027676 775.083504 C 1360.027676 819.488715 1395.693563 855.154602 1439.980675 855.154602 C 1484.267786 855.154602 1520.051773 819.488715 1520.051773 775.083504 C 1520.051773 730.796393 1484.267786 695.130505 1439.980675 695.130505 Z M 1439.980675 695.130505 " transform="matrix(0.0330761,0,0,0.0330761,0,0)"/>
<path style=" stroke:none;fill-rule:nonzero;fill:rgb(100%,100%,100%);fill-opacity:0.313725;" d="M 47.628906 5.792969 C 40.300781 5.792969 34.398438 11.691406 34.398438 19.023438 C 34.398438 19.078125 34.398438 19.132812 34.398438 19.1875 C 34.488281 11.933594 40.355469 6.121094 47.628906 6.121094 C 54.902344 6.121094 60.769531 11.933594 60.859375 19.1875 C 60.859375 19.132812 60.859375 19.078125 60.859375 19.023438 C 60.859375 11.691406 54.960938 5.792969 47.628906 5.792969 Z M 47.628906 5.792969 "/>
<path style=" stroke:none;fill-rule:nonzero;fill:rgb(0%,0%,0%);fill-opacity:0.235294;" d="M 34.398438 18.855469 C 34.398438 18.914062 34.398438 18.96875 34.398438 19.023438 C 34.398438 26.351562 40.300781 32.253906 47.628906 32.253906 C 54.960938 32.253906 60.859375 26.351562 60.859375 19.023438 C 60.859375 18.96875 60.859375 18.914062 60.859375 18.855469 C 60.769531 26.109375 54.902344 31.921875 47.628906 31.921875 C 40.355469 31.921875 34.488281 26.109375 34.398438 18.855469 Z M 34.398438 18.855469 "/>
<path style=" stroke:none;fill-rule:nonzero;fill:rgb(12.941177%,12.941177%,12.941177%);fill-opacity:1;" d="M 47.628906 5.605469 C 40.199219 5.605469 34.210938 11.59375 34.210938 19.023438 C 34.210938 26.453125 40.199219 32.441406 47.628906 32.441406 C 55.058594 32.441406 61.046875 26.453125 61.046875 19.023438 C 61.046875 11.59375 55.058594 5.605469 47.628906 5.605469 Z M 47.628906 5.980469 C 54.859375 5.980469 60.671875 11.792969 60.671875 19.023438 C 60.671875 26.25 54.859375 32.066406 47.628906 32.066406 C 40.402344 32.066406 34.585938 26.25 34.585938 19.023438 C 34.585938 11.792969 40.402344 5.980469 47.628906 5.980469 Z M 47.628906 5.980469 "/>
</g>
</svg>

<svg xmlns="http://www.w3.org/2000/svg" width="64pt" height="64pt" viewBox="0 0 64 64"><defs><radialGradient id="a" gradientUnits="userSpaceOnUse" cx="450.909" cy="189.579" fx="450.909" fy="189.579" r="21.167" gradientTransform="matrix(0 -.15626 -.14064 0 45.185 127.19)"><stop offset="0" stop-opacity=".314"/><stop offset=".222" stop-opacity=".275"/><stop offset="1" stop-opacity="0"/></radialGradient><radialGradient id="b" gradientUnits="userSpaceOnUse" cx="450.909" cy="189.579" fx="450.909" fy="189.579" r="21.167" gradientTransform="matrix(0 .15626 .1719 0 -12.741 -15.055)"><stop offset="0" stop-opacity=".314"/><stop offset=".222" stop-opacity=".275"/><stop offset="1" stop-opacity="0"/></radialGradient><radialGradient id="c" gradientUnits="userSpaceOnUse" cx="450.909" cy="189.579" fx="450.909" fy="189.579" r="21.167" gradientTransform="matrix(0 -.15626 .15626 0 -9.779 127.19)"><stop offset="0" stop-opacity=".314"/><stop offset=".222" stop-opacity=".275"/><stop offset="1" stop-opacity="0"/></radialGradient><radialGradient id="d" gradientUnits="userSpaceOnUse" cx="450.909" cy="189.579" fx="450.909" fy="189.579" r="21.167" gradientTransform="matrix(0 .15626 -.15626 0 48.147 -15.055)"><stop offset="0" stop-opacity=".314"/><stop offset=".222" stop-opacity=".275"/><stop offset="1" stop-opacity="0"/></radialGradient><linearGradient id="e" gradientUnits="userSpaceOnUse" x1="148.167" y1="117.083" x2="148.167" y2="-168.667" gradientTransform="translate(0 41.431) scale(.12501)"><stop offset="0" stop-color="#b0bec5"/><stop offset="1" stop-color="#cfd8dc"/></linearGradient><linearGradient id="f" gradientUnits="userSpaceOnUse" x1="381" y1="43" x2="381" y2="-168.667" gradientTransform="translate(0 26.878) scale(.12501)"><stop offset="0" stop-color="#7986cb"/><stop offset="1" stop-color="#9fa8da"/></linearGradient><linearGradient id="g" gradientUnits="userSpaceOnUse" x1="1440" y1="855.118" x2="1440" y2="255.118"><stop offset="0" stop-color="#b0bec5"/><stop offset="1" stop-color="#cfd8dc"/></linearGradient></defs><path d="M19.184 56.066h5.293v-2.644h-5.293zm0 0" fill="url(#a)"/><path d="M19.184 56.066H13.89v2.649h5.293zm0 0" fill="url(#b)"/><path d="M19.184 56.066H13.89v-2.644h5.293zm0 0" fill="url(#c)"/><path d="M19.184 56.066h5.293v2.649h-5.293zm0 0" fill="url(#d)"/><path d="M10.555 20.344a5.282 5.282 0 0 0-5.293 5.293V44.16a5.28 5.28 0 0 0 5.293 5.293h7.968l-.03 5.457c0 1.488 1.323 1.488 1.788 0l2.145-5.457H39.66a5.28 5.28 0 0 0 5.293-5.293V25.637c0-2.93-2.36-5.293-5.293-5.293zm0 0" fill="url(#e)"/><path d="M10.555 20.344a5.282 5.282 0 0 0-5.293 5.293v.664a5.28 5.28 0 0 1 5.293-5.293H39.66a5.28 5.28 0 0 1 5.293 5.293v-.664c0-2.93-2.36-5.293-5.293-5.293zm7.965 29.77l-.028 4.796c0 .04 0 .082.004.117l.027-4.914zm0 0" fill="#fff" fill-opacity=".392"/><path d="M5.262 43.5v.66a5.28 5.28 0 0 0 5.293 5.293h7.965l.003-.66h-7.968A5.282 5.282 0 0 1 5.262 43.5zm39.691 0c0 2.93-2.36 5.293-5.293 5.293H22.426L20.28 54.25c-.453 1.445-1.718 1.484-1.785.117l-.004.543c0 1.488 1.324 1.488 1.79 0l2.144-5.457H39.66a5.28 5.28 0 0 0 5.293-5.293zm0 0" fill-opacity=".235"/><path d="M10.555 20.344a5.282 5.282 0 0 0-5.293 5.293V44.16a5.28 5.28 0 0 0 5.293 5.293h7.968l-.03 5.457c0 1.488 1.323 1.488 1.788 0l2.145-5.457H39.66a5.28 5.28 0 0 0 5.293-5.293V25.637c0-2.93-2.36-5.293-5.293-5.293zm0 0" fill="none" stroke-width=".37503000000000003" stroke-linecap="round" stroke="#212121"/><path d="M47.629 5.793c7.309 0 13.23 5.922 13.23 13.23 0 7.305-5.922 13.23-13.23 13.23-7.305 0-13.23-5.925-13.23-13.23 0-7.308 5.925-13.23 13.23-13.23zm0 0" fill="url(#f)"/><path d="M1399.945 255.094c-22.084 0-39.917 17.833-39.917 40.035v280.013c0 22.084 17.833 39.917 39.917 39.917h80.071c22.203 0 40.036-17.833 40.036-39.917V295.129a39.919 39.919 0 0 0-40.036-40.035zm40.036 440.037c-44.287 0-79.953 35.665-79.953 79.953 0 44.405 35.666 80.07 79.953 80.07 44.287 0 80.07-35.665 80.07-80.07 0-44.288-35.783-79.953-80.07-79.953zm0 0" transform="scale(.03308)" fill="url(#g)" stroke-width="11.339" stroke-linecap="square" stroke-linejoin="round" stroke="#212121"/><path d="M47.629 5.793a13.201 13.201 0 0 0-13.23 13.23v.165A13.204 13.204 0 0 1 47.628 6.12c7.273 0 13.14 5.813 13.23 13.066v-.164c0-7.332-5.898-13.23-13.23-13.23zm0 0" fill="#fff" fill-opacity=".314"/><path d="M34.398 18.855v.168c0 7.329 5.903 13.23 13.23 13.23 7.333 0 13.231-5.901 13.231-13.23v-.168a13.204 13.204 0 0 1-13.23 13.067 13.204 13.204 0 0 1-13.23-13.067zm0 0" fill-opacity=".235"/><path d="M47.629 5.605A13.394 13.394 0 0 0 34.21 19.023c0 7.43 5.988 13.418 13.418 13.418 7.43 0 13.418-5.988 13.418-13.418 0-7.43-5.988-13.418-13.418-13.418zm0 .375c7.23 0 13.043 5.813 13.043 13.043a13.011 13.011 0 0 1-13.043 13.043 13.013 13.013 0 0 1-13.043-13.043c0-7.23 5.816-13.043 13.043-13.043zm0 0" fill="#212121"/></svg>
